X:18
M:6/8
L:1/8
K:Bb
|: f | fgf efe | ded cdc | BcB ABA | c3 F2E | DFB Bdf | b2f g2e | def FBA | B3 [B,2B2] :|

